X: 10921
Q: "Slow"
M: C
L: 1/8
K: G
|: d |\
g>agf edeg | d<B AG A3 d |
g>agf e>de<g | d<B TAB G3 d |\
g>agf e>deg | e/d/c/B/ c/B/A/G/ A3 B |\


